packages/amis-ui/src/icons/pencil.svg

<svg viewBox="0 0 14 14" xmlns="http://www.w3.org/2000/svg"><path d="m10.496.834 2.672 2.672a.797.797 0 0 1 0 1.128l-2.264 2.264L4.4 13.402H.6v-3.8l7.248-7.248 1.52-1.52a.797.797 0 0 1 1.128 0ZM7.67 3.663 1.4 9.933v2.669h2.669l6.269-6.271L7.67 3.663Zm2.262-2.262L8.235 3.098l2.669 2.669 1.697-1.697-2.669-2.669ZM7 12.6h4.8v.8H7v-.8Z" fill="currentColor"/></svg>

<?xml version="1.0" encoding="UTF-8"?>
<svg viewBox="0 0 14 14" version="1.1" xmlns="http://www.w3.org/2000/svg" xmlns:xlink="http://www.w3.org/1999/xlink">
	<g  fill="currentColor" fill-rule="nonzero">
		<path d="M10.496,0.834 L13.168,3.506 C13.48,3.818 13.48,4.322 13.168,4.634 L10.904,6.898 L4.4,13.402 L0.6,13.402 L0.6,9.602 L7.848,2.354 L7.848,2.354 L9.368,0.834 C9.68,0.522 10.184,0.522 10.496,0.834 Z M7.67,3.663 L1.4,9.9333708 L1.4,12.602 L4.06862915,12.602 L10.338,6.331 L7.67,3.663 Z M9.932,1.40137085 L8.23537085,3.098 L10.904,5.76662915 L12.6006292,4.07 L9.932,1.40137085 Z M7,12.6 L11.8,12.6 L11.8,13.4 L7,13.4 L7,12.6 Z" >
		</path>
	</g>
</svg>
